Newaita-dark/apps/64/transmission.svg

<svg height="64" viewBox="0 0 64 64" width="64" xmlns="http://www.w3.org/2000/svg" xmlns:xlink="http://www.w3.org/1999/xlink"><linearGradient id="a" gradientTransform="matrix(0 .125012 -.125012 0 37.459307 62.683064)" gradientUnits="userSpaceOnUse" x1="-349.249969" x2="-433.916626" y1="87.979172" y2="87.979172"><stop offset="0" stop-color="#f44336"/><stop offset="1" stop-color="#ef5350"/></linearGradient><linearGradient id="b"><stop offset="0" stop-opacity=".313726"/><stop offset=".222222" stop-opacity=".27451"/><stop offset="1" stop-opacity="0"/></linearGradient><radialGradient id="c" cx="450.908936" cy="189.579361" gradientTransform="matrix(.00000023 -.156265 -.187518 -.0000002 67.302462 127.85218)" gradientUnits="userSpaceOnUse" r="21.166656" xlink:href="#b"/><radialGradient id="d" cx="450.908936" cy="189.579361" gradientTransform="matrix(-.00000023 .156265 .187518 .0000002 -3.79639 -14.393443)" gradientUnits="userSpaceOnUse" r="21.166656" xlink:href="#b"/><radialGradient id="e" cx="450.908936" cy="189.579361" gradientTransform="matrix(-.00000023 -.156265 .187518 -.0000002 -3.79639 127.85218)" gradientUnits="userSpaceOnUse" r="21.166656" xlink:href="#b"/><radialGradient id="f" cx="450.908936" cy="189.579361" gradientTransform="matrix(.00000023 .156265 -.187518 .0000002 67.302459 -14.393444)" gradientUnits="userSpaceOnUse" r="21.166656" xlink:href="#b"/><linearGradient id="g" gradientTransform="matrix(.0178134 0 0 .125012 27.204854 27.539088)" gradientUnits="userSpaceOnUse" x1="255.323059" x2="255.323044" y1="233.5" y2="254.666656"><stop offset="0" stop-opacity=".27451"/><stop offset="1" stop-opacity="0"/></linearGradient><linearGradient id="h" gradientUnits="userSpaceOnUse" x1="31.753048" x2="31.753048" y1="56.067868" y2="8.438296"><stop offset="0" stop-color="#bdbdbd"/><stop offset="1" stop-color="#e0e0e0"/></linearGradient><path d="m55.566406 15.054688c0 2.191406-1.777344 3.96875-3.96875 3.96875h-39.691406c-2.191406 0-3.96875-1.777344-3.96875-3.96875 0-2.191407 1.777344-3.96875 3.96875-3.96875h39.691406c2.191406 0 3.96875 1.777343 3.96875 3.96875zm0 0" fill="url(#a)"/><path d="m32.195312 56.730469h3.527344v-2.648438h-3.527344zm0 0" fill="url(#c)"/><path d="m31.3125 56.730469h-3.527344v2.644531h3.527344zm0 0" fill="url(#d)"/><path d="m31.3125 56.730469h-3.527344v-2.648438h3.527344zm0 0" fill="url(#e)"/><path d="m32.195312 56.730469h3.527344v2.644531h-3.527344zm0 0" fill="url(#f)"/><path d="m31.3125 56.066406h.882812v3.308594h-.882812zm0 0" fill="url(#g)"/><path d="m11.90625 11.085938c-2.199219 0-3.96875 1.769531-3.96875 3.96875 0 .171874.011719.34375.035156.511718.25-1.953125 1.910156-3.453125 3.933594-3.453125h39.691406c2.027344 0 3.6875 1.5 3.9375 3.453125.019532-.167968.03125-.339844.03125-.511718 0-2.199219-1.769531-3.96875-3.96875-3.96875zm0 0" fill="#fff" fill-opacity=".392157"/><path d="m11.90625 19c-2.199219 0-3.96875-1.773438-3.96875-3.96875 0-.175781.011719-.347656.035156-.515625.25 1.953125 1.910156 3.453125 3.933594 3.453125h39.691406c2.027344 0 3.6875-1.5 3.9375-3.453125.019532.167969.03125.339844.03125.515625 0 2.195312-1.769531 3.96875-3.96875 3.96875zm0 0" fill-opacity=".235294"/><path d="m-94.574-444.488803c17.529576 0 31.746968 14.217392 31.746968 31.746968v317.50093c0 17.529576-14.217392 31.746968-31.746968 31.746968s-31.746968-14.217392-31.746968-31.746968v-317.50093c0-17.529576 14.217392-31.746968 31.746968-31.746968zm0 0" fill="none" stroke="#212121" stroke-linecap="square" stroke-linejoin="bevel" stroke-width="3" transform="matrix(0 .125012 -.125012 0 0 26.877566)"/><path d="m29.105469 8.480469c-1.464844 0-2.644531 1.179687-2.644531 2.644531v29.265625l-12.191407-5.226563c-.324219-.136718-.675781-.210937-1.027343-.210937-2.449219-.011719-3.585938 3.039063-1.726563 4.632813l18.523437 15.875c.988282.847656 2.441407.847656 3.425782 0l18.523437-15.875c.988281-.847657 1.207031-2.285157.523438-3.390626-.6875-1.101562-2.078125-1.539062-3.273438-1.03125l-12.191406 5.226563v-29.265625c0-1.464844-1.183594-2.644531-2.648437-2.644531zm0 0" fill="url(#h)"/><path d="m29.105469 8.480469c-1.464844 0-2.644531 1.179687-2.644531 2.644531v.953125c0-1.46875 1.179687-2.648437 2.644531-2.648437h5.292969c1.464843 0 2.648437 1.179687 2.648437 2.648437v-.953125c0-1.464844-1.183594-2.644531-2.648437-2.644531zm21.167969 26.472656c-.347657 0-.699219.070313-1.035157.210937l-12.191406 5.226563v.953125l12.191406-5.226562c1.195313-.511719 2.585938-.074219 3.273438 1.03125.175781.285156.292969.597656.351562.914062.117188-.625.003907-1.292969-.351562-1.867188-.496094-.792968-1.351563-1.242187-2.238281-1.242187zm-37.03125 0c-1.796876-.007813-2.882813 1.628906-2.605469 3.128906.210937-1.167969 1.1875-2.183593 2.605469-2.175781.351562 0 .703124.070312 1.027343.210938l12.191407 5.226562v-.953125l-12.191407-5.226563c-.324219-.136718-.675781-.210937-1.027343-.210937zm0 0" fill="#fff" fill-opacity=".784314"/><path d="m52.859375 37.085938c-.109375.566406-.402344 1.097656-.871094 1.5l-18.523437 15.875c-.984375.847656-2.4375.847656-3.425782 0l-18.523437-15.875c-.488281-.421876-.769531-.941407-.875-1.476563-.164063.855469.085937 1.796875.875 2.476563l18.523437 15.875c.988282.847656 2.441407.847656 3.425782 0l18.523437-15.875c.738281-.632813 1.046875-1.59375.871094-2.5zm0 0" fill-opacity=".235294"/><path d="m232.821517-147.162728c-11.717631 0-21.15423 9.436599-21.15423 21.15423v234.102644l-97.521937-41.808507c-2.593503-1.093646-5.405734-1.687339-8.217966-1.687339-19.591879-.093741-28.68476 24.310178-13.811181 37.058961l148.17335 126.987873c7.905496 6.780602 19.529386 6.780602 27.403634 0l148.17335-126.987873c7.905495-6.780603 9.655328-18.279505 4.1871-27.12241-5.499475-8.811659-16.623413-12.311325-26.185-8.249212l-97.521937 41.808507v-234.102644c0-11.717631-9.467846-21.15423-21.185477-21.15423zm0 0" fill="none" stroke="#212121" stroke-linecap="round" stroke-linejoin="round" stroke-width="3" transform="matrix(.125012 0 0 .125012 0 26.877566)"/></svg>

<?xml version="1.0" encoding="UTF-8"?>
<svg xmlns="http://www.w3.org/2000/svg" xmlns:xlink="http://www.w3.org/1999/xlink" width="64px" height="64px" viewBox="0 0 64 64" version="1.1">
<defs>
<linearGradient id="linear0" gradientUnits="userSpaceOnUse" x1="-349.249969" y1="87.979172" x2="-433.916626" y2="87.979172" gradientTransform="matrix(0.000000000000000008,0.125012,-0.125012,0.000000000000000008,37.459307,62.683064)">
<stop offset="0" style="stop-color:rgb(95.686275%,26.274511%,21.176471%);stop-opacity:1;"/>
<stop offset="1" style="stop-color:rgb(93.725491%,32.549021%,31.37255%);stop-opacity:1;"/>
</linearGradient>
<radialGradient id="radial0" gradientUnits="userSpaceOnUse" cx="450.908936" cy="189.579361" fx="450.908936" fy="189.579361" r="21.166656" gradientTransform="matrix(0.000000232227,-0.156265,-0.187518,-0.000000203077,67.302462,127.85218)">
<stop offset="0" style="stop-color:rgb(0%,0%,0%);stop-opacity:0.313726;"/>
<stop offset="0.222222" style="stop-color:rgb(0%,0%,0%);stop-opacity:0.27451;"/>
<stop offset="1" style="stop-color:rgb(0%,0%,0%);stop-opacity:0;"/>
</radialGradient>
<radialGradient id="radial1" gradientUnits="userSpaceOnUse" cx="450.908936" cy="189.579361" fx="450.908936" fy="189.579361" r="21.166656" gradientTransform="matrix(-0.000000232227,0.156265,0.187518,0.000000203077,-3.79639,-14.393443)">
<stop offset="0" style="stop-color:rgb(0%,0%,0%);stop-opacity:0.313726;"/>
<stop offset="0.222222" style="stop-color:rgb(0%,0%,0%);stop-opacity:0.27451;"/>
<stop offset="1" style="stop-color:rgb(0%,0%,0%);stop-opacity:0;"/>
</radialGradient>
<radialGradient id="radial2" gradientUnits="userSpaceOnUse" cx="450.908936" cy="189.579361" fx="450.908936" fy="189.579361" r="21.166656" gradientTransform="matrix(-0.000000232227,-0.156265,0.187518,-0.000000203077,-3.79639,127.85218)">
<stop offset="0" style="stop-color:rgb(0%,0%,0%);stop-opacity:0.313726;"/>
<stop offset="0.222222" style="stop-color:rgb(0%,0%,0%);stop-opacity:0.27451;"/>
<stop offset="1" style="stop-color:rgb(0%,0%,0%);stop-opacity:0;"/>
</radialGradient>
<radialGradient id="radial3" gradientUnits="userSpaceOnUse" cx="450.908936" cy="189.579361" fx="450.908936" fy="189.579361" r="21.166656" gradientTransform="matrix(0.000000232227,0.156265,-0.187518,0.000000203077,67.302459,-14.393444)">
<stop offset="0" style="stop-color:rgb(0%,0%,0%);stop-opacity:0.313726;"/>
<stop offset="0.222222" style="stop-color:rgb(0%,0%,0%);stop-opacity:0.27451;"/>
<stop offset="1" style="stop-color:rgb(0%,0%,0%);stop-opacity:0;"/>
</radialGradient>
<linearGradient id="linear1" gradientUnits="userSpaceOnUse" x1="255.323059" y1="233.5" x2="255.323044" y2="254.666656" gradientTransform="matrix(0.0178134,0,0,0.125012,27.204854,27.539088)">
<stop offset="0" style="stop-color:rgb(0%,0%,0%);stop-opacity:0.27451;"/>
<stop offset="1" style="stop-color:rgb(0%,0%,0%);stop-opacity:0;"/>
</linearGradient>
<linearGradient id="linear2" gradientUnits="userSpaceOnUse" x1="254" y1="233.5" x2="254" y2="-147.5" gradientTransform="matrix(0.125012,0,0,0.125012,0,26.877566)">
<stop offset="0" style="stop-color:rgb(74.117649%,74.117649%,74.117649%);stop-opacity:1;"/>
<stop offset="1" style="stop-color:rgb(87.843138%,87.843138%,87.843138%);stop-opacity:1;"/>
</linearGradient>
</defs>
<g id="surface1">
<path style=" stroke:none;fill-rule:nonzero;fill:url(#linear0);" d="M 55.566406 15.054688 C 55.566406 17.246094 53.789062 19.023438 51.597656 19.023438 L 11.90625 19.023438 C 9.714844 19.023438 7.9375 17.246094 7.9375 15.054688 C 7.9375 12.863281 9.714844 11.085938 11.90625 11.085938 L 51.597656 11.085938 C 53.789062 11.085938 55.566406 12.863281 55.566406 15.054688 Z M 55.566406 15.054688 "/>
<path style=" stroke:none;fill-rule:nonzero;fill:url(#radial0);" d="M 32.195312 56.730469 L 35.722656 56.730469 L 35.722656 54.082031 L 32.195312 54.082031 Z M 32.195312 56.730469 "/>
<path style=" stroke:none;fill-rule:nonzero;fill:url(#radial1);" d="M 31.3125 56.730469 L 27.785156 56.730469 L 27.785156 59.375 L 31.3125 59.375 Z M 31.3125 56.730469 "/>
<path style=" stroke:none;fill-rule:nonzero;fill:url(#radial2);" d="M 31.3125 56.730469 L 27.785156 56.730469 L 27.785156 54.082031 L 31.3125 54.082031 Z M 31.3125 56.730469 "/>
<path style=" stroke:none;fill-rule:nonzero;fill:url(#radial3);" d="M 32.195312 56.730469 L 35.722656 56.730469 L 35.722656 59.375 L 32.195312 59.375 Z M 32.195312 56.730469 "/>
<path style=" stroke:none;fill-rule:nonzero;fill:url(#linear1);" d="M 31.3125 56.066406 L 32.195312 56.066406 L 32.195312 59.375 L 31.3125 59.375 Z M 31.3125 56.066406 "/>
<path style=" stroke:none;fill-rule:nonzero;fill:rgb(100%,100%,100%);fill-opacity:0.392157;" d="M 11.90625 11.085938 C 9.707031 11.085938 7.9375 12.855469 7.9375 15.054688 C 7.9375 15.226562 7.949219 15.398438 7.972656 15.566406 C 8.222656 13.613281 9.882812 12.113281 11.90625 12.113281 L 51.597656 12.113281 C 53.625 12.113281 55.285156 13.613281 55.535156 15.566406 C 55.554688 15.398438 55.566406 15.226562 55.566406 15.054688 C 55.566406 12.855469 53.796875 11.085938 51.597656 11.085938 Z M 11.90625 11.085938 "/>
<path style=" stroke:none;fill-rule:nonzero;fill:rgb(0%,0%,0%);fill-opacity:0.235294;" d="M 11.90625 19 C 9.707031 19 7.9375 17.226562 7.9375 15.03125 C 7.9375 14.855469 7.949219 14.683594 7.972656 14.515625 C 8.222656 16.46875 9.882812 17.96875 11.90625 17.96875 L 51.597656 17.96875 C 53.625 17.96875 55.285156 16.46875 55.535156 14.515625 C 55.554688 14.683594 55.566406 14.855469 55.566406 15.03125 C 55.566406 17.226562 53.796875 19 51.597656 19 Z M 11.90625 19 "/>
<path style="fill:none;stroke-width:3;stroke-linecap:square;stroke-linejoin:bevel;stroke:rgb(12.941177%,12.941177%,12.941177%);stroke-opacity:1;stroke-miterlimit:4;" d="M -94.574 -444.488803 C -77.044424 -444.488803 -62.827032 -430.271411 -62.827032 -412.741835 L -62.827032 -95.240905 C -62.827032 -77.711329 -77.044424 -63.493937 -94.574 -63.493937 C -112.103576 -63.493937 -126.320968 -77.711329 -126.320968 -95.240905 L -126.320968 -412.741835 C -126.320968 -430.271411 -112.103576 -444.488803 -94.574 -444.488803 Z M -94.574 -444.488803 " transform="matrix(0.000000000000000008,0.125012,-0.125012,0.000000000000000008,0,26.877566)"/>
<path style=" stroke:none;fill-rule:nonzero;fill:url(#linear2);" d="M 29.105469 8.480469 C 27.640625 8.480469 26.460938 9.660156 26.460938 11.125 L 26.460938 40.390625 L 14.269531 35.164062 C 13.945312 35.027344 13.59375 34.953125 13.242188 34.953125 C 10.792969 34.941406 9.65625 37.992188 11.515625 39.585938 L 30.039062 55.460938 C 31.027344 56.308594 32.480469 56.308594 33.464844 55.460938 L 51.988281 39.585938 C 52.976562 38.738281 53.195312 37.300781 52.511719 36.195312 C 51.824219 35.09375 50.433594 34.65625 49.238281 35.164062 L 37.046875 40.390625 L 37.046875 11.125 C 37.046875 9.660156 35.863281 8.480469 34.398438 8.480469 Z M 29.105469 8.480469 "/>
<path style=" stroke:none;fill-rule:nonzero;fill:rgb(100%,100%,100%);fill-opacity:0.784314;" d="M 29.105469 8.480469 C 27.640625 8.480469 26.460938 9.660156 26.460938 11.125 L 26.460938 12.078125 C 26.460938 10.609375 27.640625 9.429688 29.105469 9.429688 L 34.398438 9.429688 C 35.863281 9.429688 37.046875 10.609375 37.046875 12.078125 L 37.046875 11.125 C 37.046875 9.660156 35.863281 8.480469 34.398438 8.480469 Z M 50.273438 34.953125 C 49.925781 34.953125 49.574219 35.023438 49.238281 35.164062 L 37.046875 40.390625 L 37.046875 41.34375 L 49.238281 36.117188 C 50.433594 35.605469 51.824219 36.042969 52.511719 37.148438 C 52.6875 37.433594 52.804688 37.746094 52.863281 38.0625 C 52.980469 37.4375 52.867188 36.769531 52.511719 36.195312 C 52.015625 35.402344 51.160156 34.953125 50.273438 34.953125 Z M 13.242188 34.953125 C 11.445312 34.945312 10.359375 36.582031 10.636719 38.082031 C 10.847656 36.914062 11.824219 35.898438 13.242188 35.90625 C 13.59375 35.90625 13.945312 35.976562 14.269531 36.117188 L 26.460938 41.34375 L 26.460938 40.390625 L 14.269531 35.164062 C 13.945312 35.027344 13.59375 34.953125 13.242188 34.953125 Z M 13.242188 34.953125 "/>
<path style=" stroke:none;fill-rule:nonzero;fill:rgb(0%,0%,0%);fill-opacity:0.235294;" d="M 52.859375 37.085938 C 52.75 37.652344 52.457031 38.183594 51.988281 38.585938 L 33.464844 54.460938 C 32.480469 55.308594 31.027344 55.308594 30.039062 54.460938 L 11.515625 38.585938 C 11.027344 38.164062 10.746094 37.644531 10.640625 37.109375 C 10.476562 37.964844 10.726562 38.90625 11.515625 39.585938 L 30.039062 55.460938 C 31.027344 56.308594 32.480469 56.308594 33.464844 55.460938 L 51.988281 39.585938 C 52.726562 38.953125 53.035156 37.992188 52.859375 37.085938 Z M 52.859375 37.085938 "/>
<path style="fill:none;stroke-width:3;stroke-linecap:round;stroke-linejoin:round;stroke:rgb(12.941177%,12.941177%,12.941177%);stroke-opacity:1;stroke-miterlimit:4;" d="M 232.821517 -147.162728 C 221.103886 -147.162728 211.667287 -137.726129 211.667287 -126.008498 L 211.667287 108.094146 L 114.14535 66.285639 C 111.551847 65.191993 108.739616 64.5983 105.927384 64.5983 C 86.335505 64.504559 77.242624 88.908478 92.116203 101.657261 L 240.289553 228.645134 C 248.195049 235.425736 259.818939 235.425736 267.693187 228.645134 L 415.866537 101.657261 C 423.772032 94.876658 425.521865 83.377756 420.053637 74.534851 C 414.554162 65.723192 403.430224 62.223526 393.868637 66.285639 L 296.3467 108.094146 L 296.3467 -126.008498 C 296.3467 -137.726129 286.878854 -147.162728 275.161223 -147.162728 Z M 232.821517 -147.162728 " transform="matrix(0.125012,0,0,0.125012,0,26.877566)"/>
</g>
</svg>
